X: 43360
T: Wren's, The
R: hornpipe
M: 4/4
K: Amixolydian
AG|:EA AB cB cd|ef ed Bc df|eA AB BA GB|AG EF GE DG|
EA AB cB cd|ef ed Bc df|eA AB BA GB|1 A2 AG A2 AG:|2 A2 AG A4||
|:(3aaa ag ef ec|(3ddd dc Bc df|eA AB BA GB|AG EF GE DG|
EA AB cB cd|ef ed Bc df|eA AB BA GB|A2 AG A4:|

